X: 1
T: Fall of Paris
%O: from Viola Ruth
B: Lee Owens "Advanced Square Dance Figures of the West and Southwest" p.58
R: reel
Z: 2010 John Chambers <jc:trillian.mit.edu>
M: 2/4
L: 1/16
K: G
G2 |\
"G"u[BG][BG][BG][BG] [BG][BG][BG][BG] | d3B B3A | [BG][BG][BG][BG] [BG][BG][BG][BG] | "D"A3[GB,] "G"[G3B,3]A |
[BG][BG][BG][BG] [BG][BG][BG][BG] | d3B B3B | "D7"ABAG E2F2 |1 "G"G4 G2 :|2 "G"G4 G4 ||
|: "G"g2f2 g2e2 | (d2B2) G4 | gggg a2b2 | "C"e3e e2(fg) |
"D7"a2b2 a3g | "G"dcBA G3G | "D7"[BG][BG][BG][BG] E2F2 |1 "G"[G4B,4] [GB,](def) :|2 "G"[G4B,4] [G2B,2] |]

